src/Pure/16/symbolic/actions/zoom-out-symbolic.svg

<?xml version="1.0" encoding="UTF-8" standalone="no"?>
<svg
   width="16"
   height="16"
   version="1.1"
   id="svg2"
   sodipodi:docname="zoom-out-symbolic.svg"
   inkscape:version="1.4.2 (ebf0e940d0, 2025-05-08)"
   xmlns:inkscape="http://www.inkscape.org/namespaces/inkscape"
   xmlns:sodipodi="http://sodipodi.sourceforge.net/DTD/sodipodi-0.dtd"
   xmlns="http://www.w3.org/2000/svg"
   xmlns:svg="http://www.w3.org/2000/svg">
  <defs
     id="defs2">
    <style
       id="current-color-scheme"
       type="text/css">
        .ColorScheme-Text { color:#363636; }
     </style>
  </defs>
  <sodipodi:namedview
     id="namedview2"
     pagecolor="#ffffff"
     bordercolor="#000000"
     borderopacity="0.25"
     inkscape:showpageshadow="2"
     inkscape:pageopacity="0.0"
     inkscape:pagecheckerboard="0"
     inkscape:deskcolor="#d1d1d1"
     inkscape:zoom="49.6875"
     inkscape:cx="8"
     inkscape:cy="8"
     inkscape:window-width="1920"
     inkscape:window-height="1010"
     inkscape:window-x="0"
     inkscape:window-y="0"
     inkscape:window-maximized="1"
     inkscape:current-layer="svg2" />
  <path
     id="path1"
     style="fill:currentColor"
     class="ColorScheme-Text"
     d="M 7.4628906 1 C 3.3352545 1.0204235 -5.0527139e-05 4.3723133 0 8.5 C 0 12.642136 3.3578644 16 7.5 16 C 11.642136 16 15 12.642136 15 8.5 C 15 4.3578644 11.642136 1 7.5 1 C 7.48763 0.9999694 7.47526 0.9999694 7.4628906 1 z M 7.5 2 C 11.089851 2 14 4.9101491 14 8.5 C 14 12.089851 11.089851 15 7.5 15 C 3.9101491 15 1 12.089851 1 8.5 C 1 4.9101491 3.9101491 2 7.5 2 z M 4 8 L 4 9 L 11 9 L 11 8 L 4 8 z " />
</svg>

<svg width="16" height="16" version="1.1" xmlns="http://www.w3.org/2000/svg">
 <path d="m7.4629 1a7.5 7.5 0 0 0-7.4629 7.5 7.5 7.5 0 0 0 7.5 7.5 7.5 7.5 0 0 0 7.5-7.5 7.5 7.5 0 0 0-7.5-7.5 7.5 7.5 0 0 0-0.037109 0zm0.037109 1a6.5 6.5 0 0 1 6.5 6.5 6.5 6.5 0 0 1-6.5 6.5 6.5 6.5 0 0 1-6.5-6.5 6.5 6.5 0 0 1 6.5-6.5z" fill="#363636" stroke-linecap="round" stroke-linejoin="round" stroke-width="1.0016"/>
 <path d="m4 8h7v1h-7z" fill="#363636" stroke-linecap="round" stroke-linejoin="round" stroke-width="1.0016"/>
</svg>
